img/faqs/claims-pad-icon.svg

<svg height="77" viewBox="0 0 74 77" width="74" xmlns="http://www.w3.org/2000/svg"><path d="m1198.43345 1427.33052.00343 19.50982c-.00856 1.69694-.71176 3.23602-1.84442 4.35043-1.1318 1.11863-2.69219 1.80923-4.40829 1.80923h-43.93147l-.00256-.0076c-1.66049 0-3.17127-.64501-4.28938-1.6885l-.12747-.11482c-1.13265-1.11695-1.83329-2.66024-1.83329-4.35887v-60.26271c0-1.6961.70406-3.23855 1.83329-4.35296 1.08304-1.07305 2.5673-1.75267 4.2064-1.80923l.21045-.01098h4.2774v-2.48041c0-1.05869.87173-1.91392 1.94023-1.91392 1.07277 0 1.94108.85523 1.94108 1.91392v2.48041h7.07482v-2.48041c0-1.05869.87088-1.91392 1.94109-1.91392 1.07106 0 1.94022.85523 1.94022 1.91392v2.48041h7.07482v-2.48041c0-1.05869.87088-1.91392 1.94023-1.91392 1.07278 0 1.94023.85523 1.94023 1.91392v2.48041h7.07568v-2.48041c0-1.05869.87002-1.91392 1.93937-1.91392 1.07277 0 1.94023.85523 1.94023 1.91392v2.48041h2.90863c1.7161 0 3.27649.69482 4.40829 1.81177 1.13779 1.12032 1.84442 2.66277 1.84442 4.35634h-.00856l.00257 15.69211 3.43646-3.39136c.86318-.8527 1.98215-1.32717 3.0823-1.39386 1.18997-.07514 2.36027.30731 3.23114 1.16844l6.62741 6.53958c.87002.8586 1.25927 2.01776 1.18227 3.18789-.06758 1.08402-.54665 2.18493-1.4124 3.03762zm6.3836-21.46764c.73742-.72774 1.9599-.75561 2.73411-.06332.77421.68807.80586 1.83794.07101 2.56315l-22.22367 21.93282c-.73571.7269-1.9599.75561-2.73497.06417-.7742-.6906-.80586-1.83879-.06843-2.56484zm-27.19743 27.20433 3.39968-8.21541 23.59072-23.2811c.1788-.17898.39181-.27607.58087-.28873.10694-.00422.19933.01435.24724.06247l6.62654 6.53874c.04791.04896.06844.14014.06245.24398-.01112.19587-.11035.40693-.29257.58338l-23.59329 23.27603-8.22116 3.31706c.1865-.62727.0077-1.33054-.53125-1.80754-.51243-.46265-1.23018-.60279-1.86923-.42888zm-29.36692-48.84335-.13088-.00253c-.59884.03123-1.14207.28535-1.54671.68384-.42774.42297-.69465 1.0131-.69465 1.6598v60.26102c0 .64669.26691 1.23345.69465 1.65557l.07528.07852c.42175.38329.98637.61799 1.59975.61799v-.0076h43.93403c.65616 0 1.25157-.2634 1.68188-.68553.43201-.4255.7032-1.01648.70748-1.66149l-.00428-15.67944-3.86335 3.8101c-.21729.21529-.47564.36641-.74854.4559l-14.23605 5.74429c-.586.24146-1.1874.29464-1.75202.18827-.60226-.11229-1.14891-.39764-1.58691-.82906h-.0077c-.43459-.4255-.72374-.96835-.83923-1.57031-.10522-.55214-.05218-1.14311.18649-1.72058l-.00513-.00422 5.86004-14.16824c.09924-.24399.24723-.45589.42603-.63234l16.5638-16.34894-.00598-19.50644h-.00428c0-.64754-.26434-1.23261-.69037-1.64883-.43031-.42635-1.02572-.68975-1.68188-.68975h-2.90863v2.93293c0 1.057-.86746 1.91476-1.94023 1.91476-1.06935 0-1.93937-.85776-1.93937-1.91476v-2.93293h-7.07568v2.93293c0 1.057-.86745 1.91476-1.94023 1.91476-1.06935 0-1.94023-.85776-1.94023-1.91476v-2.93293h-7.07482v2.93293c0 1.057-.86916 1.91476-1.94022 1.91476-1.07021 0-1.94109-.85776-1.94109-1.91476v-2.93293h-7.07482v2.93293c0 1.057-.86831 1.91476-1.94108 1.91476-1.0685 0-1.94023-.85776-1.94023-1.91476v-2.93293z" fill="#ff5721" fill-rule="evenodd" transform="translate(-1142 -1376)"/></svg>

<?xml version="1.0" encoding="UTF-8"?>
<svg width="74px" height="77px" viewBox="0 0 74 77" version="1.1" xmlns="http://www.w3.org/2000/svg" xmlns:xlink="http://www.w3.org/1999/xlink">
    <!-- Generator: Sketch 51.3 (57544) - http://www.bohemiancoding.com/sketch -->
    <title>claims-pad-icon</title>
    <desc>Created with Sketch.</desc>
    <defs></defs>
    <g id="FAQs-&amp;-Account" stroke="none" stroke-width="1" fill="none" fill-rule="evenodd">
        <g id="TT-FAQs" transform="translate(-1142.000000, -1376.000000)" fill="#FF5721">
            <path d="M1198.43345,1427.33052 L1198.43688,1446.84034 C1198.42832,1448.53728 1197.72512,1450.07636 1196.59246,1451.19077 C1195.46066,1452.3094 1193.90027,1453 1192.18417,1453 L1148.2527,1453 L1148.25014,1452.9924 C1146.58965,1452.9924 1145.07887,1452.34739 1143.96076,1451.3039 L1143.83329,1451.18908 C1142.70064,1450.07213 1142,1448.52884 1142,1446.83021 L1142,1386.5675 C1142,1384.8714 1142.70406,1383.32895 1143.83329,1382.21454 C1144.91633,1381.14149 1146.40059,1380.46187 1148.03969,1380.40531 L1148.25014,1380.39433 L1152.52754,1380.39433 L1152.52754,1377.91392 C1152.52754,1376.85523 1153.39927,1376 1154.46777,1376 C1155.54054,1376 1156.40885,1376.85523 1156.40885,1377.91392 L1156.40885,1380.39433 L1163.48367,1380.39433 L1163.48367,1377.91392 C1163.48367,1376.85523 1164.35455,1376 1165.42476,1376 C1166.49582,1376 1167.36498,1376.85523 1167.36498,1377.91392 L1167.36498,1380.39433 L1174.4398,1380.39433 L1174.4398,1377.91392 C1174.4398,1376.85523 1175.31068,1376 1176.38003,1376 C1177.45281,1376 1178.32026,1376.85523 1178.32026,1377.91392 L1178.32026,1380.39433 L1185.39594,1380.39433 L1185.39594,1377.91392 C1185.39594,1376.85523 1186.26596,1376 1187.33531,1376 C1188.40808,1376 1189.27554,1376.85523 1189.27554,1377.91392 L1189.27554,1380.39433 L1192.18417,1380.39433 C1193.90027,1380.39433 1195.46066,1381.08915 1196.59246,1382.2061 C1197.73025,1383.32642 1198.43688,1384.86887 1198.43688,1386.56244 L1198.42832,1386.56244 L1198.43089,1402.25455 L1201.86735,1398.86319 C1202.73053,1398.01049 1203.8495,1397.53602 1204.94965,1397.46933 C1206.13962,1397.39419 1207.30992,1397.77664 1208.18079,1398.63777 L1214.8082,1405.17735 C1215.67822,1406.03595 1216.06747,1407.19511 1215.99047,1408.36524 C1215.92289,1409.44926 1215.44382,1410.55017 1214.57807,1411.40286 L1198.43345,1427.33052 Z M1204.81705,1405.86288 C1205.55447,1405.13514 1206.77695,1405.10727 1207.55116,1405.79956 C1208.32537,1406.48763 1208.35702,1407.6375 1207.62217,1408.36271 L1185.3985,1430.29553 C1184.66279,1431.02243 1183.4386,1431.05114 1182.66353,1430.3597 C1181.88933,1429.6691 1181.85767,1428.52091 1182.5951,1427.79486 L1204.81705,1405.86288 Z M1177.61962,1433.06721 L1181.0193,1424.8518 L1204.61002,1401.5707 C1204.78882,1401.39172 1205.00183,1401.29463 1205.19089,1401.28197 C1205.29783,1401.27775 1205.39022,1401.29632 1205.43813,1401.34444 L1212.06467,1407.88318 C1212.11258,1407.93214 1212.13311,1408.02332 1212.12712,1408.12716 C1212.116,1408.32303 1212.01677,1408.53409 1211.83455,1408.71054 L1188.24126,1431.98657 L1180.0201,1435.30363 C1180.2066,1434.67636 1180.0278,1433.97309 1179.48885,1433.49609 C1178.97642,1433.03344 1178.25867,1432.8933 1177.61962,1433.06721 Z M1148.2527,1384.22386 L1148.12182,1384.22133 C1147.52298,1384.25256 1146.97975,1384.50668 1146.57511,1384.90517 C1146.14737,1385.32814 1145.88046,1385.91827 1145.88046,1386.56497 L1145.88046,1446.82599 C1145.88046,1447.47268 1146.14737,1448.05944 1146.57511,1448.48156 L1146.65039,1448.56008 C1147.07214,1448.94337 1147.63676,1449.17807 1148.25014,1449.17807 L1148.25014,1449.17047 L1192.18417,1449.17047 C1192.84033,1449.17047 1193.43574,1448.90707 1193.86605,1448.48494 C1194.29806,1448.05944 1194.56925,1447.46846 1194.57353,1446.82345 L1194.56925,1431.14401 L1190.7059,1434.95411 C1190.48861,1435.1694 1190.23026,1435.32052 1189.95736,1435.41001 L1175.72131,1441.1543 C1175.13531,1441.39576 1174.53391,1441.44894 1173.96929,1441.34257 C1173.36703,1441.23028 1172.82038,1440.94493 1172.38238,1440.51351 L1172.37468,1440.51351 C1171.94009,1440.08801 1171.65094,1439.54516 1171.53545,1438.9432 C1171.43023,1438.39106 1171.48327,1437.80009 1171.72194,1437.22262 L1171.71681,1437.2184 L1177.57685,1423.05016 C1177.67609,1422.80617 1177.82408,1422.59427 1178.00288,1422.41782 L1194.56668,1406.06888 L1194.5607,1386.56244 L1194.55642,1386.56244 C1194.55642,1385.9149 1194.29208,1385.32983 1193.86605,1384.91361 C1193.43574,1384.48726 1192.84033,1384.22386 1192.18417,1384.22386 L1189.27554,1384.22386 L1189.27554,1387.15679 C1189.27554,1388.21379 1188.40808,1389.07155 1187.33531,1389.07155 C1186.26596,1389.07155 1185.39594,1388.21379 1185.39594,1387.15679 L1185.39594,1384.22386 L1178.32026,1384.22386 L1178.32026,1387.15679 C1178.32026,1388.21379 1177.45281,1389.07155 1176.38003,1389.07155 C1175.31068,1389.07155 1174.4398,1388.21379 1174.4398,1387.15679 L1174.4398,1384.22386 L1167.36498,1384.22386 L1167.36498,1387.15679 C1167.36498,1388.21379 1166.49582,1389.07155 1165.42476,1389.07155 C1164.35455,1389.07155 1163.48367,1388.21379 1163.48367,1387.15679 L1163.48367,1384.22386 L1156.40885,1384.22386 L1156.40885,1387.15679 C1156.40885,1388.21379 1155.54054,1389.07155 1154.46777,1389.07155 C1153.39927,1389.07155 1152.52754,1388.21379 1152.52754,1387.15679 L1152.52754,1384.22386 L1148.2527,1384.22386 Z" id="claims-pad-icon"></path>
        </g>
    </g>
</svg>
